X:1
T:Title
%%score 1 ( 2 3 )
L:1/8
Q:1/4=117
M:4/4
K:C
V:1 treble nm="Grand Piano, Soprano"
V:2 bass nm="Choir Pad, My Hope Is Still in Jesus"
V:3 bass 
V:1
 [EG]2 [EG]2 [Ec]2 [_EB]2 | [_EA]2 =E2 [EG]4 | [EA]2 [DG]2 [B,D]2 [CG]2 | [B,F]2 [CE]6 | %4
w: By~Julian~Jordan,~1911 * * *||||
 [EG]2 [EG]2 [Ec]2 [_EB]2 | [_EA]2 =E2 [EG]4 | [Gc]2 [^Fc]2 [FA]2 [GB]2 | [^Fc]2 [=Fd]6 | %8
w: ||||
 [FG]2 [FG]2 [Fd]2 [FA]2 | [FB]2 [Ed]2 [Ec]4 | [Ec]2 [Ec]2 [EG]2 [Fc]2 | [G_B]2 [FA]6 | %12
w: ||||
 [FA]2 [FA]2 [Fc]2 [_EB]2 | [_EA]2 [=EG]2 [Gc]4 | [FA]2 [EG]2 [EG]2 [Fd]2- | [Fd][FB] [Ec]6 | %16
w: ||||
 [EG]2 [FG]2 [Fd]2 [FA]2 | [FB]2 [Ec]2 [EG]4 | [EG]2 [FG]2 [Fd]2 [Ec]2 | [Ad]2 [^Ge]6 | %20
w: ||||
 [FG]2 [EG]2 [Ge]2 [Gd]2 | [Gc]2 [FA]2 [Fc]4 | [FA]2 [EG]2 [Gc]2 [^Fc]2 | [Fd]2 [Ec]6- | %24
w: ||||
 [Ec]2 z2 z4 |] %25
w: |
V:2
 [C,C]2 [C,C]2 [C,G,]2 [C,^F,]2 | [C,^F,]2 [C,G,]2 [C,C]4 | [C,C]2 [G,B,]2 [F,G,]2 [E,G,]2 | %3
 [D,G,]2 [C,G,]6 | [C,C]2 [C,C]2 [C,G,]2 [C,^F,]2 | [C,^F,]2 [C,G,]2 [C,C]4 | %6
 [E,C]2 [D,A,]2 [D,C]2 [D,B,]2 | [D,A,]2 [G,B,]6 | [G,B,]2 [G,B,]2 [G,B,]2 [G,C]2 | %9
 [G,D]2 [C,C]2 [C,C]4 | [C,G,]2 [C,G,]2 [C,C]2 [D,G,]2 | [E,C]2 [F,C]6 | %12
 [F,C]2 [F,C]2 [F,A,]2 [^F,B,]2 | [^F,C]2 [G,C]2 [E,C]4 | [F,C]2 [G,C]2 [G,C]2 [G,B,]2- | %15
 [G,B,][G,D] [C,C]6 | [C,C]2 [G,B,]2 [G,B,]2 [G,C]2 | [G,D]2 [C,C]2 [C,C]4 | %18
 [C,C]2 [G,B,]2 [G,B,]2 [A,C]2 | B,A, [E,B,]6 | [D,B,]2 [C,C]2 [C,C]2 [D,B,]2 | %21
 [E,C]2 [F,C]2 [F,A,]4 | [F,C]2 [G,C]2 [E,C]2 [D,A,]2 | [G,B,]2 [C,C]6- | [C,C]2 z2 z4 |] %25
V:3
 x8 | x8 | x8 | x8 | x8 | x8 | x8 | x8 | x8 | x8 | x8 | x8 | x8 | x8 | x8 | x8 | x8 | x8 | x8 | %19
 G,2 z2 z4 | x8 | x8 | x8 | x8 | x8 |] %25

